src/assets/svg/game-audio-call/Heart.svg

<svg width="35" height="37" viewBox="0 0 35 37" fill="none" xmlns="http://www.w3.org/2000/svg">
<g clip-path="url(#clip0_4717_554)">
<g filter="url(#filter0_b_4717_554)">
<path d="M16.6741 34.3232C16.3044 34.3248 15.9489 34.1725 15.6846 33.8993L2.72293 20.4452C1.08136 18.7836 0.109151 16.5168 0.00864511 14.1165C-0.0918609 11.7163 0.68708 9.36756 2.18335 7.55914C2.96306 6.66594 3.90457 5.94744 4.95199 5.44627C5.9994 4.9451 7.13138 4.67148 8.28075 4.64164C9.43011 4.6118 10.5734 4.82636 11.6429 5.27258C12.7123 5.7188 13.686 6.38758 14.5063 7.23924L16.4794 9.28657L18.1689 7.46895C19.7421 5.73518 21.8871 4.70934 24.1575 4.60482C26.428 4.5003 28.6492 5.32515 30.3591 6.90778C31.2031 7.73296 31.8817 8.72892 32.3547 9.8366C32.8277 10.9443 33.0855 12.1411 33.1127 13.3561C33.1399 14.571 32.936 15.7794 32.5131 16.9095C32.0902 18.0396 31.4569 19.0684 30.6507 19.9349L17.6825 33.8777C17.5509 34.0191 17.3939 34.1314 17.2208 34.2079C17.0476 34.2844 16.8617 34.3236 16.6741 34.3232ZM5.21158 21.9514L16.1957 33.3466C16.3253 33.4805 16.4998 33.5546 16.681 33.5529C16.8622 33.5512 17.0353 33.4737 17.1626 33.3373L30.1308 19.3937C30.8683 18.6007 31.4476 17.6592 31.8344 16.6251C32.2211 15.5909 32.4075 14.4852 32.3824 13.3735C32.3573 12.2617 32.1213 11.1667 31.6883 10.1532C31.2553 9.13973 30.6342 8.2285 29.8618 7.47357C28.2916 6.02567 26.2536 5.27372 24.1722 5.37423C22.0907 5.47473 20.1261 6.41996 18.6873 8.01316L16.486 10.3796L13.9929 7.78885C13.2424 7.0098 12.3516 6.39807 11.3732 5.98996C10.3948 5.58184 9.34879 5.38566 8.2973 5.41305C7.24581 5.44045 6.21024 5.69085 5.25205 6.14942C4.29385 6.60798 3.43256 7.26536 2.71928 8.08253C1.35008 9.7432 0.639524 11.8981 0.735552 14.0987C0.831579 16.2993 1.72679 18.376 3.2348 19.8963L5.21158 21.9514Z" fill="#F5443B"/>
</g>
</g>
<defs>
<filter id="filter0_b_4717_554" x="-4" y="0.595978" width="41.115" height="37.7273" filterUnits="userSpaceOnUse" color-interpolation-filters="sRGB">
<feFlood flood-opacity="0" result="BackgroundImageFix"/>
<feGaussianBlur in="BackgroundImage" stdDeviation="2"/>
<feComposite in2="SourceAlpha" operator="in" result="effect1_backgroundBlur_4717_554"/>
<feBlend mode="normal" in="SourceGraphic" in2="effect1_backgroundBlur_4717_554" result="shape"/>
</filter>
<clipPath id="clip0_4717_554">
<rect width="35" height="37" fill="white"/>
</clipPath>
</defs>
</svg>

<svg width="35" height="37" fill="none" xmlns="http://www.w3.org/2000/svg"><g filter="url(#b)" clip-path="url(#a)"><path d="M16.674 34.323c-.37.002-.725-.15-.99-.424L2.724 20.445C1.08 18.784.109 16.517.009 14.116c-.1-2.4.678-4.748 2.174-6.557a8.618 8.618 0 0 1 2.769-2.113 8.2 8.2 0 0 1 3.329-.804 8.173 8.173 0 0 1 3.362.63 8.553 8.553 0 0 1 2.863 1.967l1.973 2.048 1.69-1.818c1.573-1.734 3.718-2.76 5.988-2.864 2.271-.105 4.492.72 6.202 2.303a9.078 9.078 0 0 1 1.996 2.929 9.539 9.539 0 0 1 .158 7.073 9.142 9.142 0 0 1-1.862 3.025L17.683 33.878a1.41 1.41 0 0 1-.462.33c-.173.076-.36.116-.547.115zM5.212 21.951l10.984 11.396c.13.133.304.208.485.206a.667.667 0 0 0 .482-.216L30.13 19.394a8.367 8.367 0 0 0 1.703-2.769 8.73 8.73 0 0 0-.146-6.472 8.307 8.307 0 0 0-1.826-2.68c-1.57-1.447-3.608-2.2-5.69-2.099-2.081.1-4.046 1.046-5.485 2.64l-2.201 2.366-2.493-2.591a7.824 7.824 0 0 0-2.62-1.799 7.477 7.477 0 0 0-6.12.16 7.884 7.884 0 0 0-2.534 1.933C1.35 9.743.64 11.898.736 14.099c.096 2.2.99 4.277 2.499 5.797l1.977 2.055z" fill="#F5443B"/></g><defs><clipPath id="a"><path fill="#fff" d="M0 0h35v37H0z"/></clipPath><filter id="b" x="-4" y=".596" width="41.115" height="37.727" filterUnits="userSpaceOnUse" color-interpolation-filters="sRGB"><feFlood flood-opacity="0" result="BackgroundImageFix"/><feGaussianBlur in="BackgroundImage" stdDeviation="2"/><feComposite in2="SourceAlpha" operator="in" result="effect1_backgroundBlur_4717_554"/><feBlend in="SourceGraphic" in2="effect1_backgroundBlur_4717_554" result="shape"/></filter></defs></svg>
